build/system/DesktopCloudSolid.svg

<svg xmlns="http://www.w3.org/2000/svg" fill="none" viewBox="0 0 24 24" focusable="false"><path d="M0 0H24V24H0z"/><path fill="#74767B" fill-rule="evenodd" d="M6 4C4.34326 4 3 5.34326 3 7L3 13.9844C3 15.6411 4.34326 16.9844 6 16.9844L10.0029 16.9844L10.0029 18.6904L8.65674 18.6904C8.29785 18.6904 8.00684 18.9814 8.00684 19.3403C8.00684 19.6992 8.29785 19.9902 8.65674 19.9902L15.3374 19.9902C15.6963 19.9902 15.9873 19.6992 15.9873 19.3403C15.9873 18.9814 15.6963 18.6904 15.3374 18.6904L13.9868 18.6904L13.9868 16.9844L17.9941 16.9844C19.6509 16.9844 20.9941 15.6411 20.9941 13.9844L20.9941 7C20.9941 5.34326 19.6509 4 17.9941 4L6 4ZM8.61279 13.9385C8.86914 14.0464 9.13672 14.1001 9.4165 14.1001L14.6113 14.1001C14.9551 14.1001 15.2842 14.0337 15.5986 13.9014C15.9023 13.7734 16.1714 13.5933 16.4053 13.3604C16.6396 13.127 16.8208 12.8589 16.9497 12.5562C17.0117 12.4102 17.0591 12.2617 17.0923 12.1094C17.1309 11.9341 17.1499 11.7539 17.1499 11.5703C17.1499 11.3958 17.1326 11.2249 17.0981 11.0576C17.0688 10.917 17.0278 10.7793 16.9741 10.644C16.9219 10.5112 16.8589 10.3843 16.7861 10.2637C16.7021 10.125 16.6045 9.99447 16.4932 9.87207C16.2866 9.64453 16.0469 9.46094 15.7739 9.3208C15.6372 9.25049 15.4966 9.19336 15.3521 9.14941C15.2707 9.12467 15.1878 9.104 15.1035 9.0874C15.0156 8.81592 14.8921 8.55908 14.7339 8.31738C14.6406 8.17529 14.5376 8.04199 14.4248 7.91797C14.3027 7.78353 14.1689 7.65837 14.0244 7.54443C13.877 7.42871 13.7217 7.32666 13.5591 7.23877C13.4111 7.15918 13.2568 7.09082 13.0957 7.03418C12.9458 6.98145 12.793 6.93994 12.6387 6.90967C12.4341 6.87012 12.2261 6.8501 12.0142 6.8501C11.7736 6.8501 11.5386 6.87549 11.3091 6.92627C11.1191 6.96826 10.9331 7.02734 10.751 7.10449C10.5628 7.18359 10.3851 7.27848 10.2178 7.38916C10.0397 7.507 9.87337 7.6429 9.71875 7.79688C9.55908 7.95557 9.41846 8.12744 9.29688 8.31201C9.19092 8.47314 9.09912 8.64404 9.02246 8.82471C8.94401 9.00993 8.88346 9.19906 8.84082 9.39209C8.7915 9.61719 8.7666 9.84766 8.7666 10.084C8.64795 10.123 8.5332 10.1733 8.42188 10.2339C8.31641 10.292 8.21777 10.3574 8.125 10.4312C8.03027 10.5073 7.94238 10.5913 7.86084 10.6841C7.77441 10.7827 7.69873 10.8872 7.6333 10.998C7.57617 11.0952 7.52734 11.1968 7.48633 11.3032C7.44482 11.4111 7.4126 11.521 7.39014 11.6328C7.36344 11.766 7.3501 11.9017 7.3501 12.04C7.3501 12.1891 7.36556 12.3348 7.39648 12.4771C7.42334 12.6016 7.4624 12.7236 7.51318 12.8433C7.5625 12.9595 7.62158 13.0693 7.68994 13.1729C7.7666 13.2891 7.85547 13.3975 7.95654 13.498C8.0542 13.5952 8.15967 13.6812 8.27246 13.7563C8.37891 13.8271 8.49268 13.8877 8.61279 13.9385Z"/></svg>

<svg xmlns="http://www.w3.org/2000/svg" fill="none" viewBox="0 0 24 24" focusable="false"><path fill="#74767B" fill-rule="evenodd" d="M6 4C4.34 4 3 5.34 3 7v6.98c0 1.66 1.34 3 3 3h4v1.71H8.65c-.36 0-.65.29-.65.65 0 .35.29.65.65.65h6.68c.36 0 .65-.3.65-.65 0-.36-.29-.65-.65-.65h-1.35v-1.71h4.01c1.66 0 3-1.34 3-3V7c0-1.66-1.34-3-3-3zm2.61 9.93c.25.11.52.17.8.17h5.2c.34 0 .67-.07.98-.2q.465-.195.81-.54c.23-.24.42-.51.54-.81.07-.14.11-.29.15-.45.04-.17.05-.35.05-.53s-.01-.35-.05-.52c-.03-.14-.07-.28-.12-.41s-.12-.26-.19-.38c-.08-.14-.18-.27-.29-.39-.21-.23-.45-.41-.72-.55q-.21-.105-.42-.18l-.25-.06c-.09-.27-.21-.53-.37-.77-.09-.14-.2-.27-.31-.4-.12-.13-.26-.26-.4-.37-.15-.12-.3-.22-.47-.31-.14-.08-.3-.14-.46-.2-.15-.05-.3-.1-.46-.13-.2-.03-.41-.05-.62-.05-.24 0-.48.02-.71.07-.19.04-.37.1-.55.18-.19.08-.37.17-.54.28-.18.12-.34.26-.5.41-.16.16-.3.33-.42.52-.1.16-.2.33-.27.51q-.12.27-.18.57c-.05.22-.08.45-.08.69-.12.04-.23.09-.34.15s-.21.12-.3.2c-.09.07-.18.16-.26.25-.09.1-.17.2-.23.31-.06.1-.11.2-.15.31q-.06.165-.09.33c-.03.13-.04.27-.04.41s.01.29.04.43c.03.13.07.25.12.37.05.11.11.22.17.33.08.11.17.22.27.32s.2.19.32.26c.1.07.22.13.34.18"/></svg>
